**kern	**silbe	**harmony	**chordsym	**phrase	**timestamp	**leadinstrument
*ICvox	*	*M4/4	*M4/4	*	*	*
*E:	*	*E:	*E:	*	*	*
*M4/4	*	*	*	*	*	*
*clefF4	*	*	*	*	*	*
r;	.	1r;	r	.	0	r
=1	=1	=1	=1	=1	=1	=1
*	*	*>A_intro	*>A_intro	*>A_intro	*>A_intro	*>A_intro
1r	.	1EM	E:maj (E G# B)	newline	0.395	r
=2	=2	=2	=2	=2	=2	=2
1r	.	2AM	A:maj (A C# E)	.	.	r
.	.	2EM	E:maj (E G# B)	.	.	r
=3	=3	=3	=3	=3	=3	=3
1r	.	1EM	E:maj (E G# B)	.	.	r
=4	=4	=4	=4	=4	=4	=4
2r	.	2AM	A:maj (A C# E)	.	.	r
4r	.	2EM	E:maj (E G# B)	.	.	r
8r	.	.	.	.	.	.
8E	You	.	.	.	.	.
=5	=5	=5	=5	=5	=5	=5
*	*	*>B_chorus	*>B_chorus	*>B_chorus	*>B_chorus	*>B_chorus
8G#	fought	1EM	E:maj (E G# B)	newline	8.743	voice
4G#	all	.	.	.	.	.
8B	the	.	.	.	.	.
4G#	way	.	.	.	.	.
8E	John-	.	.	.	.	.
8E	-ny	.	.	.	.	.
=6	=6	=6	=6	=6	=6	=6
4G#	Reb,	1EM	E:maj (E G# B)	.	.	voice
8G#	John-	.	.	.	.	.
8F#	-ny	.	.	.	.	.
4E	Reb	.	.	.	.	.
8r	.	.	.	.	.	.
8E	You	.	.	.	.	.
=7	=7	=7	=7	=7	=7	=7
8G#	fought	2.EM	E:maj (E G# B)	.	.	voice
4G#	all	.	.	.	.	.
8B	the	.	.	.	.	.
4G#	way	.	.	.	.	.
8E	John-	4BMm	B:7 (B D# F# A)	.	.	voice
8E	-ny	.	.	.	.	.
=8	=8	=8	=8	=8	=8	=8
4E	Reb	1EM	E:maj (E G# B)	.	.	voice
4r	.	.	.	.	.	.
2r	.	.	.	.	.	.
=9	=9	=9	=9	=9	=9	=9
1r	.	1EM	E:maj (E G# B)	.	.	voice
=10	=10	=10	=10	=10	=10	=10
*	*	*>C_verse	*>C_verse	*>C_verse	*>C_verse	*>C_verse
8G#	Saw	1EM	E:maj (E G# B)	newline	19.149	voice
4G#	you	.	.	.	.	.
8F#	a	.	.	.	.	.
8G#	mar-	.	.	.	.	.
8E	-chin'	.	.	.	.	.
4E	with	.	.	.	.	.
=11	=11	=11	=11	=11	=11	=11
8C#	Ro-	2AM	A:maj (A C# E)	.	.	voice
8E	-bert	.	.	.	.	.
8F#	E.	.	.	.	.	.
8F#	Lee	.	.	.	.	.
4E	_	2EM	E:maj (E G# B)	.	.	voice
8r	.	.	.	.	.	.
8G#	You	.	.	.	.	.
=12	=12	=12	=12	=12	=12	=12
8G#	held	1EM	E:maj (E G# B)	.	.	voice
8B	your	.	.	.	.	.
8B	head	.	.	.	.	.
8G#	uh	.	.	.	.	.
4B	high	.	.	.	.	.
8B	tryin'	.	.	.	.	.
8B	to	.	.	.	.	.
=13	=13	=13	=13	=13	=13	=13
8c#	win	1BMm	B:7 (B D# F# A)	.	.	voice
8B	the	.	.	.	.	.
8G#	vic-	.	.	.	.	.
8B	-to-	.	.	.	.	.
4B	-ry	.	.	.	.	.
8r	.	.	.	.	.	.
8B	You	.	.	.	.	.
=14	=14	=14	=14	=14	=14	=14
8c#	fought	1AM	A:maj (A C# E)	newline	27.605	voice
4c#	for	.	.	.	.	.
8c#	your	.	.	.	.	.
4c#	folks	.	.	.	.	.
8d#	but	.	.	.	.	.
8c#	you	.	.	.	.	.
=15	=15	=15	=15	=15	=15	=15
16B	did-	1EM	E:maj (E G# B)	.	.	voice
16B	-'nt	.	.	.	.	.
4B	die	.	.	.	.	.
8B	in	.	.	.	.	.
4E	vain	.	.	.	.	.
4r	.	.	.	.	.	.
=16	=16	=16	=16	=16	=16	=16
8G#	E-	1EM	E:maj (E G# B)	.	.	voice
8F#	-ven	.	.	.	.	.
8G#	though	.	.	.	.	.
8F#	you	.	.	.	.	.
8E	lost	.	.	.	.	.
8BB	they	.	.	.	.	.
8BB	speak	.	.	.	.	.
8BB	high-	.	.	.	.	.
=17	=17	=17	=17	=17	=17	=17
8C#	_	2BMm	B:7 (B D# F# A)	.	.	voice
8E	-ly	.	.	.	.	.
8E	of	.	.	.	.	.
8F#	your	.	.	.	.	.
16F#	name	2EM	E:maj (E G# B)	.	.	voice
8.E	_	.	.	.	.	.
8E	'cause	.	.	.	.	.
8E	You	.	.	.	.	.
=18	=18	=18	=18	=18	=18	=18
*	*	*>B_chorus	*>B_chorus	*>B_chorus	*>B_chorus	*>B_chorus
8G#	fought	1EM	E:maj (E G# B)	newline	35.972	voice
4G#	all	.	.	.	.	.
8B	the	.	.	.	.	.
4G#	way	.	.	.	.	.
8E	John-	.	.	.	.	.
8E	-ny	.	.	.	.	.
=19	=19	=19	=19	=19	=19	=19
4G#	Reb,	1EM	E:maj (E G# B)	.	.	voice
8G#	John-	.	.	.	.	.
8F#	-ny	.	.	.	.	.
4E	Reb	.	.	.	.	.
8r	.	.	.	.	.	.
8E	You	.	.	.	.	.
=20	=20	=20	=20	=20	=20	=20
8G#	fought	2.EM	E:maj (E G# B)	.	.	voice
4G#	all	.	.	.	.	.
8B	the	.	.	.	.	.
4G#	way	.	.	.	.	.
8E	John-	4BMm	B:7 (B D# F# A)	.	.	voice
8E	-ny	.	.	.	.	.
=21	=21	=21	=21	=21	=21	=21
4E	Reb	1EM	E:maj (E G# B)	.	.	voice
4r	.	.	.	.	.	.
2r	.	.	.	.	.	.
=22	=22	=22	=22	=22	=22	=22
2r	.	1EM	E:maj (E G# B)	.	.	voice
4r	.	.	.	.	.	.
8r	.	.	.	.	.	.
8F#	I	.	.	.	.	.
=23	=23	=23	=23	=23	=23	=23
*	*	*>C_verse	*>C_verse	*>C_verse	*>C_verse	*>C_verse
8G#	heard	1EM	E:maj (E G# B)	newline	46.32	voice
8F#	your	.	.	.	.	.
8G#	teeth	.	.	.	.	.
4G#	chat-	.	.	.	.	.
8F#	-ter	.	.	.	.	.
8E	from	.	.	.	.	.
8BB	the	.	.	.	.	.
=24	=24	=24	=24	=24	=24	=24
8C#	cold	2AM	A:maj (A C# E)	.	.	voice
8E	_	.	.	.	.	.
4E	out-	.	.	.	.	.
4E	-side	2EM	E:maj (E G# B)	.	.	voice
4r	.	.	.	.	.	.
=25	=25	=25	=25	=25	=25	=25
8G#	Saw	1EM	E:maj (E G# B)	.	.	voice
8B	the	.	.	.	.	.
16B	bul-	.	.	.	.	.
8.G#	-lets	.	.	.	.	.
8B	o-	.	.	.	.	.
8B	-pen	.	.	.	.	.
8B	up	.	.	.	.	.
8B	the	.	.	.	.	.
=26	=26	=26	=26	=26	=26	=26
4c#	wounds	1BMm	B:7 (B D# F# A)	.	.	voice
8G#	in	.	.	.	.	.
8B	your	.	.	.	.	.
4B	side	.	.	.	.	.
8.r	.	.	.	.	.	.
16B	I	.	.	.	.	.
=27	=27	=27	=27	=27	=27	=27
8c#	saw	1AM	A:maj (A C# E)	newline	54.679	voice
8c#	the	.	.	.	.	.
4c#	young	.	.	.	.	.
4c#	boys	.	.	.	.	.
8.r	.	.	.	.	.	.
16A	as	.	.	.	.	.
=28	=28	=28	=28	=28	=28	=28
8B	they	1EM	E:maj (E G# B)	.	.	voice
8B	be-	.	.	.	.	.
8B	-gan	.	.	.	.	.
8B	to	.	.	.	.	.
8E	fall	.	.	.	.	.
8E	You	.	.	.	.	.
4E	had	.	.	.	.	.
=29	=29	=29	=29	=29	=29	=29
4G#	tears	1EM	E:maj (E G# B)	.	.	voice
8G#	in	.	.	.	.	.
8F#	your	.	.	.	.	.
4E	eyes	.	.	.	.	.
8BB	'cause	.	.	.	.	.
8BB	you	.	.	.	.	.
=30	=30	=30	=30	=30	=30	=30
8C#	could-	2BMm	B:7 (B D# F# A)	.	.	voice
8E	-n't	.	.	.	.	.
8E	help	.	.	.	.	.
8E	at	.	.	.	.	.
16F#	all	2EM	E:maj (E G# B)	.	.	voice
8.E	_	.	.	.	.	.
8E	But	.	.	.	.	.
8E	you	.	.	.	.	.
=31	=31	=31	=31	=31	=31	=31
*	*	*>B_chorus	*>B_chorus	*>B_chorus	*>B_chorus	*>B_chorus
8G#	fought	1EM	E:maj (E G# B)	newline	63.055	voice
4G#	all	.	.	.	.	.
8B	the	.	.	.	.	.
4G#	way	.	.	.	.	.
8E	John-	.	.	.	.	.
8E	-ny	.	.	.	.	.
=32	=32	=32	=32	=32	=32	=32
4G#	Reb,	1EM	E:maj (E G# B)	.	.	voice
8G#	John-	.	.	.	.	.
8F#	-ny	.	.	.	.	.
4E	Reb	.	.	.	.	.
8r	.	.	.	.	.	.
8E	You	.	.	.	.	.
=33	=33	=33	=33	=33	=33	=33
8G#	fought	2.EM	E:maj (E G# B)	.	.	voice
4G#	all	.	.	.	.	.
8B	the	.	.	.	.	.
4G#	way	.	.	.	.	.
8E	John-	4BMm	B:7 (B D# F# A)	.	.	voice
8E	-ny	.	.	.	.	.
=34	=34	=34	=34	=34	=34	=34
4E	Reb	1EM	E:maj (E G# B)	.	.	voice
4r	.	.	.	.	.	.
2r	.	.	.	.	.	.
=35	=35	=35	=35	=35	=35	=35
2r	.	1EM	E:maj (E G# B)	.	.	voice
4r	.	.	.	.	.	.
8.r	.	.	.	.	.	.
16E	I	.	.	.	.	.
=36	=36	=36	=36	=36	=36	=36
*	*	*>C_verse	*>C_verse	*>C_verse	*>C_verse	*>C_verse
8G#	saw	1EM	E:maj (E G# B)	newline	73.494	voice
4G#	Gen'-	.	.	.	.	.
8F#	-ral	.	.	.	.	.
4G#	Lee	.	.	.	.	.
8BB	raise	.	.	.	.	.
8BB	a	.	.	.	.	.
=37	=37	=37	=37	=37	=37	=37
8C#	sa-	2AM	A:maj (A C# E)	.	.	voice
8E	-ber	.	.	.	.	.
8E	in	.	.	.	.	.
8F#	his	.	.	.	.	.
4E	hand	2EM	E:maj (E G# B)	.	.	voice
4r	.	.	.	.	.	.
=38	=38	=38	=38	=38	=38	=38
8G#	Heard	1EM	E:maj (E G# B)	.	.	voice
8B	the	.	.	.	.	.
8B	can-	.	.	.	.	.
8B	-nons	.	.	.	.	.
4B	roar	.	.	.	.	.
8B	as	.	.	.	.	.
8B	you	.	.	.	.	.
=39	=39	=39	=39	=39	=39	=39
8c#	made	1BMm	B:7 (B D# F# A)	.	.	voice
8B	your	.	.	.	.	.
4B	last	.	.	.	.	.
4B	stand	.	.	.	.	.
8.r	.	.	.	.	.	.
16B	You	.	.	.	.	.
=40	=40	=40	=40	=40	=40	=40
8c#	marched	1AM	A:maj (A C# E)	newline	81.861	voice
4c#	in-	.	.	.	.	.
8c#	-to	.	.	.	.	.
8c#	bat-	.	.	.	.	.
8c#	-tle	.	.	.	.	.
8d#	with	.	.	.	.	.
8c#	the	.	.	.	.	.
=41	=41	=41	=41	=41	=41	=41
8B	Grey	1EM	E:maj (E G# B)	.	.	voice
4B	and	.	.	.	.	.
8B	the	.	.	.	.	.
4E	Red	.	.	.	.	.
8E	When	.	.	.	.	.
8E	the	.	.	.	.	.
=42	=42	=42	=42	=42	=42	=42
8G#	can-	1EM	E:maj (E G# B)	.	.	voice
8F#	-non	.	.	.	.	.
4G#	smoke	.	.	.	.	.
4E	cleared	.	.	.	.	.
8.BB	took	.	.	.	.	.
16BB	days	.	.	.	.	.
=43	=43	=43	=43	=43	=43	=43
8E	_	2BMm	B:7 (B D# F# A)	.	.	voice
8E	to	.	.	.	.	.
8E	count	.	.	.	.	.
8F#	the	.	.	.	.	.
4E	dead	2EM	E:maj (E G# B)	.	.	voice
8E	'Cause	.	.	.	.	.
8E	you	.	.	.	.	.
=44	=44	=44	=44	=44	=44	=44
*	*	*>B_chorus	*>B_chorus	*>B_chorus	*>B_chorus	*>B_chorus
8G#	fought	1EM	E:maj (E G# B)	newline	90.29	voice
4G#	all	.	.	.	.	.
8B	the	.	.	.	.	.
4G#	way	.	.	.	.	.
8E	John-	.	.	.	.	.
8E	-ny	.	.	.	.	.
=45	=45	=45	=45	=45	=45	=45
4G#	Reb,	1EM	E:maj (E G# B)	.	.	voice
8G#	John-	.	.	.	.	.
8F#	-ny	.	.	.	.	.
4E	Reb	.	.	.	.	.
8r	.	.	.	.	.	.
8E	You	.	.	.	.	.
=46	=46	=46	=46	=46	=46	=46
8G#	fought	2.EM	E:maj (E G# B)	.	.	voice
4G#	all	.	.	.	.	.
8B	the	.	.	.	.	.
4G#	way	.	.	.	.	.
8E	John-	4BMm	B:7 (B D# F# A)	.	.	voice
8E	-ny	.	.	.	.	.
=47	=47	=47	=47	=47	=47	=47
4E	Reb	1EM	E:maj (E G# B)	.	.	voice
4r	.	.	.	.	.	.
2r	.	.	.	.	.	.
=48	=48	=48	=48	=48	=48	=48
2r	.	1EM	E:maj (E G# B)	.	.	voice
4r	.	.	.	.	.	.
8.r	.	.	.	.	.	.
16E	When	.	.	.	.	.
=49	=49	=49	=49	=49	=49	=49
*	*	*>C_verse	*>C_verse	*>C_verse	*>C_verse	*>C_verse
8G#	Hon-	1EM	E:maj (E G# B)	newline	100.746	voice
4.G#	-est	.	.	.	.	.
4G#	Abe	.	.	.	.	.
8BB	heard	.	.	.	.	.
8BB	the	.	.	.	.	.
=50	=50	=50	=50	=50	=50	=50
8C#	news	2AM	A:maj (A C# E)	.	.	voice
8E	a-	.	.	.	.	.
8E	-bout	.	.	.	.	.
8E	your	.	.	.	.	.
16F#	fall	2EM	E:maj (E G# B)	.	.	voice
8.E	_	.	.	.	.	.
8r	.	.	.	.	.	.
16r	.	.	.	.	.	.
16G#	The	.	.	.	.	.
=51	=51	=51	=51	=51	=51	=51
8G#	folks	1EM	E:maj (E G# B)	.	.	voice
4B	thought	.	.	.	.	.
8B	he'd	.	.	.	.	.
4.B	call	.	.	.	.	.
8B	a	.	.	.	.	.
=52	=52	=52	=52	=52	=52	=52
4c#	great	1BMm	B:7 (B D# F# A)	.	.	voice
8B	vic-	.	.	.	.	.
8G#	-t'ry	.	.	.	.	.
8B	ball	.	.	.	.	.
8G#	_	.	.	.	.	.
8r	.	.	.	.	.	.
8B	But	.	.	.	.	.
=53	=53	=53	=53	=53	=53	=53
8c#	he	1AM	A:maj (A C# E)	newline	109.133	voice
4c#	asked	.	.	.	.	.
8c#	the	.	.	.	.	.
8c#	band	.	.	.	.	.
8c#	to	.	.	.	.	.
8d#	play	.	.	.	.	.
8c#	the	.	.	.	.	.
=54	=54	=54	=54	=54	=54	=54
4B	song	1EM	E:maj (E G# B)	.	.	voice
8G#	Dix-	.	.	.	.	.
8[G#	-ie	.	.	.	.	.
8G#]	_	.	.	.	.	.
8r	.	.	.	.	.	.
8r	.	.	.	.	.	.
8E	For	.	.	.	.	.
=55	=55	=55	=55	=55	=55	=55
8G#	you	1EM	E:maj (E G# B)	.	.	voice
4G#	John-	.	.	.	.	.
8F#	-ny	.	.	.	.	.
4E	Reb	.	.	.	.	.
8r	.	.	.	.	.	.
8BB	and	.	.	.	.	.
=56	=56	=56	=56	=56	=56	=56
8C#	all	2BMm	B:7 (B D# F# A)	.	.	voice
8E	that	.	.	.	.	.
8E	you	.	.	.	.	.
8F#	be-	.	.	.	.	.
4E	-lieved	2EM	E:maj (E G# B)	.	.	voice
8E	'Cause	.	.	.	.	.
8E	you	.	.	.	.	.
=57	=57	=57	=57	=57	=57	=57
*	*	*>B2_chorus	*>B2_chorus	*>B2_chorus	*>B2_chorus	*>B2_chorus
8G#	fought	1EM	E:maj (E G# B)	newline	117.492	voice
4G#	all	.	.	.	.	.
8B	the	.	.	.	.	.
4G#	way	.	.	.	.	.
8E	John-	.	.	.	.	.
8E	-ny	.	.	.	.	.
=58	=58	=58	=58	=58	=58	=58
4G#	Reb,	1EM	E:maj (E G# B)	.	.	voice
8G#	John-	.	.	.	.	.
8F#	-ny	.	.	.	.	.
4E	Reb	.	.	.	.	.
8E	Yeah	.	.	.	.	.
8E	you	.	.	.	.	.
=59	=59	=59	=59	=59	=59	=59
8G#	fought	2.EM	E:maj (E G# B)	.	.	voice
4G#	all	.	.	.	.	.
8B	the	.	.	.	.	.
4G#	way	.	.	.	.	.
8E	John-	4BMm	B:7 (B D# F# A)	.	.	voice
8E	-ny	.	.	.	.	.
=60	=60	=60	=60	=60	=60	=60
4E	Reb	1EM	E:maj (E G# B)	.	.	voice
4r	.	.	.	.	.	.
4r	.	.	.	.	.	.
8r	.	.	.	.	.	.
8E	you	.	.	.	.	.
=61	=61	=61	=61	=61	=61	=61
*	*	*>_fadeout	*>_fadeout	*>_fadeout	*>_fadeout	*>_fadeout
8G#	fought	1EM	E:maj (E G# B)	newline	125.906	voice
4G#	all	.	.	.	.	.
8B	the	.	.	.	.	.
4G#	way	.	.	.	.	.
8E	John-	.	.	.	.	.
8E	-ny	.	.	.	.	.
=62	=62	=62	=62	=62	=62	=62
4G#	Reb,	1EM	E:maj (E G# B)	.	.	voice
8G#	John-	.	.	.	.	.
8F#	-ny	.	.	.	.	.
4E	Reb	.	.	.	.	.
8r	.	.	.	.	.	.
8E	you	.	.	.	.	.
=63	=63	=63	=63	=63	=63	=63
8G#	fought	2.EM	E:maj (E G# B)	.	.	voice
4G#	all	.	.	.	.	.
8B	the	.	.	.	.	.
4G#	way	.	.	.	.	.
8E	John-	4BMm	B:7 (B D# F# A)	.	.	voice
8E	-ny	.	.	.	.	.
=64	=64	=64	=64	=64	=64	=64
4E	Reb	1EM	E:maj (E G# B)	.	.	voice
4r	.	.	.	.	.	.
4r	.	.	.	.	.	.
8r	.	.	.	.	.	.
8E	you	.	.	.	.	.
=65	=65	=65	=65	=65	=65	=65
8G#	fought	1EM	E:maj (E G# B)	newline	134.229	voice
4G#	all	.	.	.	.	.
8B	the	.	.	.	.	.
4G#	way	.	.	.	.	.
8E	John-	.	.	.	.	.
8E	-ny	.	.	.	.	.
=66	=66	=66	=66	=66	=66	=66
4G#	Reb,	1EM	E:maj (E G# B)	.	.	voice
8G#	John-	.	.	.	.	.
8F#	-ny	.	.	.	.	.
4E	Reb	.	.	.	.	.
4r	.	.	.	.	.	.
=67	=67	=67	=67	=67	=67	=67
1r	.	2.EM	E:maj (E G# B)	.	.	voice
.	.	4BMm	B:7 (B D# F# A)	.	.	voice
r;	.	1r;	r	.	140.155	r
r;	.	1r;	r	.	141.441	r
*-	*-	*-	*-	*-	*-	*-
!!!BillboardChartDate: 1959/08/24
!!!BillboardPeak: 54
!!!BillboardWeeksOnChart: 8
!!!COC: Johnny Horton
!!!ENC: Nathaniel Condit-Schultz
!!!EST: Awating manual error checking and editing.
!!!OTL: Johnny Reb
!!!RDF**chordsym: original McGill chord annotation + (implied pitch class set, with bass pitch in first position)
!!!RDF**harmony: **recip + pitch class of root + harmonic quality
!!!RDF**leadinstrument: original McGill primary instrumentation annotation
!!!RDF**phrase: newline = linebreak in original McGill transcription
!!!RDF**timestamp: McGill audio timestamp in seconds
!!!RDT: 2017/01/12/
!!!SampleActualRank: 70
!!!SampleID#: 1287
!!!SampleTargetRank: 69
